X:1334
T:Vals efter Per Joel Berntsson 
T:(SvL Skåne nr. 505)
S:efter Per Joel Berndtsson
S:Svenska Låtar Skåne
R:Vals
Z:Patrik Månsson, 2009-03-26
O:Skäralid, Skåne
M:3/4
L:1/8
K:G
|: d2 | d2 (BG) (Bd) | d2 (BG) (Bd) | d2 (cD) (FA) | G2 Bd g2 |
d2 (BG) (Bd) | d2 (BG) (Bd) | d2 (cD) (FA) |[1 G4 :|[2 G4 z2 ]|
|: d2 (dg) (fe) | (ed) (dc) B2 | (AB) (cd) (ef) | (gd) (Bd) g2 |
d2 (dg) (fe) | (ed) (dc) B2 | (AB) (cd) (ef) |[1 g4 z2 :|[2 g4 ]|
(:musicend:)
(:music:)
